assets/asahilinux/mono.svg

<svg viewBox="0 0 24 24" xmlns="http://www.w3.org/2000/svg"><path d="m13.835 0-1.72 1.323v.97h2.178zm-1.95.057-2.075 1.038 2.076 4.153zm.23 3.768v2.395l-1.057-2.113-4.628 1.571 5.57 2.331 5.57-2.331zm-5.905 2.01-5.677 10.122 11.352 8.043v-15.79l-5.663-2.37zm11.58 0-.012.004-5.6 2.345 7.512 10.449 3.777-2.675zm-3.955 7.926v5.422l1.952-2.711zm2.864 3.981-4.411 6.135 5.846-4.14z"/></svg>

<svg xmlns="http://www.w3.org/2000/svg" viewBox="0 0 24 24"><path d="m13.835 0-1.72 1.323v.97h2.178zm-1.95.057L9.81 1.095l2.076 4.153zm.23 3.768V6.22l-1.057-2.113L6.43 5.678 12 8.009l5.57-2.331zM6.21 5.835.533 15.957 11.885 24V8.21L6.222 5.84zm11.58 0-.012.004-5.6 2.345 7.512 10.449 3.777-2.675zm-3.955 7.926v5.422l1.952-2.711zm2.864 3.981-4.411 6.135 5.846-4.14z"/></svg>
